X: 18894
T: In This Village There Lives A Fair Maid
R: waltz
M: 3/4
K: Dmajor
FG|A2d2 de|f2A2 FG|A2ABAG|A2D2 FG|A2d2 de|
f2A2A2|B2BdcB|A4 FG|A2A2 Ac|dAde fd|
A2FGAG|F2D2 FG|A2f2e2|de f2A2|FAGF EF|D4||

